svgs/sharp-thin/square-exclamation.svg

<svg xmlns="http://www.w3.org/2000/svg" viewBox="0 0 448 512"><!--! Font Awesome Pro 6.6.0 by @fontawesome - https://fontawesome.com License - https://fontawesome.com/license (Commercial License) Copyright 2024 Fonticons, Inc. --><path d="M16 48l0 416 416 0 0-416L16 48zM0 32l16 0 416 0 16 0 0 16 0 416 0 16-16 0L16 480 0 480l0-16L0 48 0 32zm232 96l0 8 0 160 0 8-16 0 0-8 0-160 0-8 16 0zM208 336l32 0 0 32-32 0 0-32z"/></svg>

<svg xmlns="http://www.w3.org/2000/svg" viewBox="0 0 448 512"><!--! Font Awesome Pro 6.5.2 by @fontawesome - https://fontawesome.com License - https://fontawesome.com/license (Commercial License) Copyright 2024 Fonticons, Inc. --><path d="M16 48V464H432V48H16zM0 32H16 432h16V48 464v16H432 16 0V464 48 32zm232 96v8V296v8H216v-8V136v-8h16zM208 336h32v32H208V336z"/></svg>
